X: 18814
T: Iitin Tiltu Polkka
R: polka
M: 2/4
K: Aminor
|:"Am"ea a/g/f/e/|"Dm"fd d/^c/d/f/|"E"ee/f/ e/d/c/B/|"Am"cA A/B/c/d/|
"Am"ea a/g/f/e/|"Dm"fd d/^c/d/f/|"E"ee/f/ e/d/c/B/|"Am"cA A2:|
|:"Am"cc/c/ cB/c/|"Dm"dd/d/ dc/d/|"E"ee/f/ e/d/c/B/|"Am"cA A2|
"Am"cc/c/ cB/c/|"Dm"dd/d/ dc/d/|"E"ee/f/ e/d/c/B/|"Am"cA A2:|
|:"Am"cA/c/ ec|"E"BE/E/ E/E/E/E/|E^G Bd|"Am"c/B/A A2|
"Am"cA/c/ ec|"E"BE/E/ E/E/E/E/|E^G Bd|"Am"c/B/A A2:|

